assets/images/footer-phone-icon.svg

<svg width="21" height="21" viewBox="0 0 21 21" fill="none" xmlns="http://www.w3.org/2000/svg">
<path id="icon" fill-rule="evenodd" clip-rule="evenodd" d="M15.7649 20.7244C13.7448 20.2183 9.60927 18.7915 5.86016 15.0423C2.11105 11.2932 0.684203 7.15771 0.178075 5.13763C-0.11279 3.97671 0.410977 2.85647 1.29909 2.2221L3.62734 0.559061C4.98962 -0.413994 6.88472 -0.0838051 7.83764 1.29263L9.30343 3.40989C9.92563 4.30863 9.71102 5.54043 8.82152 6.17578L7.65274 7.01062C7.82963 7.68723 8.37979 9.07669 10.1028 10.7997C11.8258 12.5227 13.2153 13.0729 13.8919 13.2498L14.7267 12.081C15.3621 11.1915 16.5939 10.9769 17.4926 11.5991L19.6099 13.0649C20.9863 14.0178 21.3165 15.9129 20.3434 17.2752L18.6804 19.6034C18.046 20.4915 16.9258 21.0153 15.7649 20.7244ZM7.27437 13.6281C10.6838 17.0375 14.4462 18.3322 16.2509 18.7844C16.5147 18.8505 16.8336 18.748 17.0529 18.4409L18.716 16.1127C19.0403 15.6586 18.9303 15.0269 18.4714 14.7092L16.3542 13.2435L15.4583 14.4977C15.0922 15.0103 14.4151 15.4123 13.6267 15.2422C12.6427 15.0299 10.8237 14.349 8.68859 12.2139C6.5535 10.0788 5.87259 8.25983 5.66027 7.27582C5.49017 6.48743 5.89221 5.81033 6.40479 5.44421L7.65905 4.54831L6.19325 2.43105C5.87561 1.97224 5.24391 1.86218 4.78982 2.18653L2.46157 3.84956C2.15453 4.06888 2.05202 4.38778 2.11811 4.65155C2.57029 6.45631 3.86499 10.2187 7.27437 13.6281Z" fill="#151618"/>
</svg>

<svg width="21" height="21" fill="none" xmlns="http://www.w3.org/2000/svg"><path fill-rule="evenodd" clip-rule="evenodd" d="M15.765 20.724c-2.02-.506-6.156-1.933-9.905-5.682C2.111 11.293.684 7.158.178 5.138-.112 3.977.411 2.856 1.3 2.222L3.627.56a3 3 0 0 1 4.21.734L9.304 3.41a2 2 0 0 1-.481 2.766l-1.17.835c.178.676.728 2.066 2.45 3.789 1.724 1.723 3.113 2.273 3.79 2.45l.835-1.169a2 2 0 0 1 2.766-.482l2.117 1.466a3 3 0 0 1 .733 4.21l-1.663 2.328c-.634.888-1.754 1.412-2.915 1.121Zm-8.49-7.096c3.409 3.41 7.171 4.704 8.976 5.156.264.067.583-.036.802-.343l1.663-2.328a1 1 0 0 0-.245-1.404l-2.117-1.466-.896 1.255c-.366.512-1.043.914-1.831.744-.984-.212-2.803-.893-4.938-3.028C6.553 10.079 5.873 8.26 5.66 7.276c-.17-.789.232-1.466.745-1.832l1.254-.896-1.466-2.117a1 1 0 0 0-1.403-.244L2.462 3.85c-.307.219-.41.538-.344.802.452 1.804 1.747 5.567 5.156 8.976Z" fill="#151618"/></svg>
